X:3592
T:Cruel Father, The
T:Kilfodda Reel, The
C:Larry Redican (1908-1975)
R:reel
N:Played in G or in F. Originally in F.
Z:id:hn-reel-280
M:C|
K:G
BedB AdBA|GBAG EAGE|DB,~B,2 DEGA|BG~G2 ABBA|
BedB AdBA|GBAG EAGE|DB,~B,2 DEGA|1 BGAF ~G3A:|2 BGAF ~G3B||
|:~d3B cBAB|~G3B AGEG|DG~G2 eGdG|cBAG EAAB|
~c3e dBAB|~e3f gdBG|GAGE DGBe|1 dBAB ~G3B:|2 dBAB ~G3A||
K:F
AdcA GcAG|FAGF DGFD|CA,~A,2 CDFG|AF~F2 GAAG|
AdcA GcAG|FAGF DGFD|CA,~A,2 CDFG|1 AFGE ~F3G:|2 AFGE ~F3A||
~c3A BAGA|~F3A GFDF|CF~F2 dFcF|BAGF DGGA|
~B3d cAGA|~d3e fcAF|FGFD CFAd|1 cAGA ~F3A:|2 cAGA ~F3G||


